Newaita-dark/mimetypes/64/application-x-yaml.svg

<?xml version="1.0" encoding="UTF-8"?>
<svg xmlns="http://www.w3.org/2000/svg" xmlns:xlink="http://www.w3.org/1999/xlink" width="64px" height="64px" viewBox="0 0 64 64" version="1.1">
<defs>
<linearGradient id="linear0" gradientUnits="userSpaceOnUse" x1="254" y1="233.5" x2="254" y2="254.666672" gradientTransform="matrix(0.125012,0,0,0.125012,1.32304,26.87757)">
<stop offset="0" style="stop-color:rgb(0%,0%,0%);stop-opacity:0.27451;"/>
<stop offset="1" style="stop-color:rgb(0%,0%,0%);stop-opacity:0;"/>
</linearGradient>
<radialGradient id="radial0" gradientUnits="userSpaceOnUse" cx="450.908936" cy="189.579361" fx="450.908936" fy="189.579361" r="21.166656" gradientTransform="matrix(0.000000348341,-0.156265,-0.281277,-0.000000203077,98.969138,127.190665)">
<stop offset="0" style="stop-color:rgb(0%,0%,0%);stop-opacity:0.313726;"/>
<stop offset="0.222222" style="stop-color:rgb(0%,0%,0%);stop-opacity:0.27451;"/>
<stop offset="1" style="stop-color:rgb(0%,0%,0%);stop-opacity:0;"/>
</radialGradient>
<radialGradient id="radial1" gradientUnits="userSpaceOnUse" cx="450.908936" cy="189.579361" fx="450.908936" fy="189.579361" r="21.166656" gradientTransform="matrix(-0.000000348341,0.156265,0.281277,0.000000203077,-36.786098,-15.054958)">
<stop offset="0" style="stop-color:rgb(0%,0%,0%);stop-opacity:0.313726;"/>
<stop offset="0.222222" style="stop-color:rgb(0%,0%,0%);stop-opacity:0.27451;"/>
<stop offset="1" style="stop-color:rgb(0%,0%,0%);stop-opacity:0;"/>
</radialGradient>
<radialGradient id="radial2" gradientUnits="userSpaceOnUse" cx="450.908936" cy="189.579361" fx="450.908936" fy="189.579361" r="21.166656" gradientTransform="matrix(-0.000000348341,-0.156265,0.281277,-0.000000203077,-36.786098,127.190665)">
<stop offset="0" style="stop-color:rgb(0%,0%,0%);stop-opacity:0.313726;"/>
<stop offset="0.222222" style="stop-color:rgb(0%,0%,0%);stop-opacity:0.27451;"/>
<stop offset="1" style="stop-color:rgb(0%,0%,0%);stop-opacity:0;"/>
</radialGradient>
<radialGradient id="radial3" gradientUnits="userSpaceOnUse" cx="450.908936" cy="189.579361" fx="450.908936" fy="189.579361" r="21.166656" gradientTransform="matrix(0.000000348341,0.156265,-0.281277,0.000000203077,98.969135,-15.054959)">
<stop offset="0" style="stop-color:rgb(0%,0%,0%);stop-opacity:0.313726;"/>
<stop offset="0.222222" style="stop-color:rgb(0%,0%,0%);stop-opacity:0.27451;"/>
<stop offset="1" style="stop-color:rgb(0%,0%,0%);stop-opacity:0;"/>
</radialGradient>
<linearGradient id="linear1" gradientUnits="userSpaceOnUse" x1="940" y1="1695.118164" x2="940" y2="175.118118" gradientTransform="matrix(0.0330761,0,0,0.0330761,0,0)">
<stop offset="0" style="stop-color:rgb(69.01961%,74.509805%,77.254903%);stop-opacity:1;"/>
<stop offset="1" style="stop-color:rgb(81.176472%,84.705883%,86.274511%);stop-opacity:1;"/>
</linearGradient>
<linearGradient id="linear2" gradientUnits="userSpaceOnUse" x1="249.189423" y1="233.5" x2="249.189423" y2="254.666687" gradientTransform="matrix(0.0597883,0,0,0.218771,30.084847,-32.721821)">
<stop offset="0" style="stop-color:rgb(0%,0%,0%);stop-opacity:0.27451;"/>
<stop offset="1" style="stop-color:rgb(0%,0%,0%);stop-opacity:0;"/>
</linearGradient>
<filter id="alpha" filterUnits="objectBoundingBox" x="0%" y="0%" width="100%" height="100%">
  <feColorMatrix type="matrix" in="SourceGraphic" values="0 0 0 0 1 0 0 0 0 1 0 0 0 0 1 0 0 0 1 0"/>
</filter>
<mask id="mask0">
  <g filter="url(#alpha)">
<rect x="0" y="0" width="64" height="64" style="fill:rgb(0%,0%,0%);fill-opacity:0.99;stroke:none;"/>
  </g>
</mask>
<linearGradient id="linear3" gradientUnits="userSpaceOnUse" x1="960" y1="1695.118164" x2="960" y2="175.118118" >
<stop offset="0" style="stop-color:rgb(47.058824%,56.470591%,61.176473%);stop-opacity:1;"/>
<stop offset="1" style="stop-color:rgb(56.470591%,64.313728%,68.235296%);stop-opacity:1;"/>
</linearGradient>
<clipPath id="clip1">
  <rect x="0" y="0" width="64" height="64"/>
</clipPath>
<g id="surface5" clip-path="url(#clip1)">
<path style="fill-rule:nonzero;fill:url(#linear3);stroke-width:11.338583;stroke-linecap:round;stroke-linejoin:round;stroke:rgb(12.941177%,12.941177%,12.941177%);stroke-opacity:1;stroke-miterlimit:4;" d="M 620.019564 695.130505 C 608.918261 695.130505 599.94274 703.987928 599.94274 715.08923 L 599.94274 755.124779 C 599.94274 766.226082 608.918261 775.083504 620.019564 775.083504 L 1259.997853 775.083504 C 1271.099155 775.083504 1279.956578 766.226082 1279.956578 755.124779 L 1279.956578 715.08923 C 1279.956578 703.987928 1271.099155 695.130505 1259.997853 695.130505 Z M 620.373861 855.154602 C 609.272558 855.154602 600.297037 864.012025 600.297037 875.113327 L 600.297037 915.148876 C 600.297037 926.250179 609.272558 935.107601 620.373861 935.107601 L 940.658253 935.107601 C 951.759555 935.107601 960.616978 926.250179 960.616978 915.148876 L 960.616978 875.113327 C 960.616978 864.012025 951.759555 855.154602 940.658253 855.154602 Z M 620.019564 1015.0606 C 608.918261 1015.0606 599.94274 1024.036122 599.94274 1035.137424 L 599.94274 1075.172973 C 599.94274 1086.156177 608.918261 1095.131698 620.019564 1095.131698 L 1259.997853 1095.131698 C 1271.099155 1095.131698 1279.956578 1086.156177 1279.956578 1075.172973 L 1279.956578 1035.137424 C 1279.956578 1024.036122 1271.099155 1015.0606 1259.997853 1015.0606 Z M 620.019564 1175.084697 C 608.918261 1175.084697 599.94274 1184.060218 599.94274 1195.161521 L 599.94274 1235.078971 C 599.94274 1246.180274 608.918261 1255.155795 620.019564 1255.155795 L 940.185857 1255.155795 C 951.287159 1255.155795 960.144582 1246.180274 960.144582 1235.078971 L 960.144582 1195.161521 C 960.144582 1184.060218 951.287159 1175.084697 940.185857 1175.084697 Z M 620.019564 1175.084697 " transform="matrix(0.0330761,0,0,0.0330761,0,0)"/>
</g>
<linearGradient id="linear4" gradientUnits="userSpaceOnUse" x1="338.666656" y1="233.5" x2="338.666656" y2="-168.666672" gradientTransform="matrix(0.125012,0,0,0.125012,0,26.877566)">
<stop offset="0" style="stop-color:rgb(47.058824%,56.470591%,61.176473%);stop-opacity:1;"/>
<stop offset="1" style="stop-color:rgb(56.470591%,64.313728%,68.235296%);stop-opacity:1;"/>
</linearGradient>
</defs>
<g id="surface1">
<path style=" stroke:none;fill-rule:nonzero;fill:url(#linear0);" d="M 15.875 56.066406 L 46.304688 56.066406 L 46.304688 58.714844 L 15.875 58.714844 Z M 15.875 56.066406 "/>
<path style=" stroke:none;fill-rule:nonzero;fill:url(#radial0);" d="M 46.304688 56.066406 L 51.597656 56.066406 L 51.597656 53.421875 L 46.304688 53.421875 Z M 46.304688 56.066406 "/>
<path style=" stroke:none;fill-rule:nonzero;fill:url(#radial1);" d="M 15.875 56.066406 L 10.585938 56.066406 L 10.585938 58.714844 L 15.875 58.714844 Z M 15.875 56.066406 "/>
<path style=" stroke:none;fill-rule:nonzero;fill:url(#radial2);" d="M 15.875 56.066406 L 10.585938 56.066406 L 10.585938 53.421875 L 15.875 53.421875 Z M 15.875 56.066406 "/>
<path style=" stroke:none;fill-rule:nonzero;fill:url(#radial3);" d="M 46.304688 56.066406 L 51.597656 56.066406 L 51.597656 58.714844 L 46.304688 58.714844 Z M 46.304688 56.066406 "/>
<path style=" stroke:none;fill-rule:nonzero;fill:url(#linear1);" d="M 37.085938 5.792969 L 13.230469 5.792969 C 11.765625 5.792969 10.585938 6.972656 10.585938 8.4375 L 10.585938 53.421875 C 10.585938 54.886719 11.765625 56.066406 13.230469 56.066406 L 48.953125 56.066406 C 50.417969 56.066406 51.597656 54.886719 51.597656 53.421875 L 51.597656 20.308594 Z M 37.085938 5.792969 "/>
<path style=" stroke:none;fill-rule:nonzero;fill:url(#linear2);" d="M 37.046875 18.359375 L 49.613281 18.359375 L 51.597656 20.34375 L 51.597656 22.992188 L 37.046875 22.992188 Z M 37.046875 18.359375 "/>
<path style=" stroke:none;fill-rule:nonzero;fill:rgb(0%,0%,0%);fill-opacity:0.235294;" d="M 10.585938 52.394531 L 10.585938 53.421875 C 10.585938 54.886719 11.765625 56.066406 13.230469 56.066406 L 48.953125 56.066406 C 50.417969 56.066406 51.597656 54.886719 51.597656 53.421875 L 51.597656 52.394531 C 51.597656 53.859375 50.417969 55.039062 48.953125 55.039062 L 13.230469 55.039062 C 11.765625 55.039062 10.585938 53.859375 10.585938 52.394531 Z M 10.585938 52.394531 "/>
<use xlink:href="#surface5" mask="url(#mask0)"/>
<path style=" stroke:none;fill-rule:nonzero;fill:rgb(96.470588%,96.470588%,96.470588%);fill-opacity:0.588235;" d="M 13.230469 5.792969 C 11.765625 5.792969 10.585938 6.972656 10.585938 8.4375 L 10.585938 9.429688 C 10.585938 7.964844 11.765625 6.785156 13.230469 6.785156 L 37.085938 6.785156 L 51.597656 21.300781 L 51.597656 20.308594 L 37.085938 5.792969 Z M 13.230469 5.792969 "/>
<path style=" stroke:none;fill-rule:nonzero;fill:url(#linear4);" d="M 51.597656 20.308594 L 37.085938 5.792969 L 37.085938 17.660156 C 37.085938 19.125 38.265625 20.308594 39.730469 20.308594 Z M 51.597656 20.308594 "/>
<path style=" stroke:none;fill-rule:nonzero;fill:rgb(0%,0%,0%);fill-opacity:0.235294;" d="M 37.085938 17.039062 L 37.085938 17.660156 C 37.085938 19.125 38.265625 20.308594 39.730469 20.308594 L 51.597656 20.308594 L 50.976562 19.683594 L 39.730469 19.683594 C 38.265625 19.683594 37.085938 18.503906 37.085938 17.039062 Z M 37.085938 17.039062 "/>
<path style=" stroke:none;fill-rule:nonzero;fill:rgb(100%,100%,100%);fill-opacity:0.392157;" d="M 37.085938 5.792969 L 37.085938 6.785156 L 50.605469 20.308594 L 51.597656 20.308594 Z M 37.085938 5.792969 "/>
<path style=" stroke:none;fill-rule:nonzero;fill:rgb(12.941177%,12.941177%,12.941177%);fill-opacity:1;" d="M 37.082031 5.605469 C 36.980469 5.605469 36.898438 5.691406 36.898438 5.792969 L 36.898438 17.660156 C 36.898438 19.226562 38.164062 20.496094 39.730469 20.496094 L 51.597656 20.496094 C 51.675781 20.492188 51.742188 20.449219 51.773438 20.378906 C 51.800781 20.308594 51.785156 20.226562 51.730469 20.175781 L 37.214844 5.660156 C 37.179688 5.625 37.132812 5.605469 37.082031 5.605469 Z M 37.273438 6.246094 L 51.144531 20.117188 L 39.730469 20.117188 C 38.363281 20.117188 37.273438 19.027344 37.273438 17.660156 Z M 37.273438 6.246094 "/>
<path style=" stroke:none;fill-rule:nonzero;fill:rgb(12.941177%,12.941177%,12.941177%);fill-opacity:1;" d="M 13.230469 5.605469 C 11.664062 5.605469 10.398438 6.871094 10.398438 8.4375 L 10.398438 53.421875 C 10.398438 54.988281 11.664062 56.253906 13.230469 56.253906 L 48.953125 56.253906 C 50.519531 56.253906 51.785156 54.988281 51.785156 53.421875 L 51.785156 20.308594 C 51.785156 20.257812 51.765625 20.210938 51.730469 20.175781 L 37.214844 5.660156 C 37.179688 5.625 37.132812 5.605469 37.085938 5.605469 Z M 13.230469 5.980469 L 37.007812 5.980469 L 51.410156 20.382812 L 51.410156 53.421875 C 51.410156 54.785156 50.316406 55.878906 48.953125 55.878906 L 13.230469 55.878906 C 11.863281 55.878906 10.773438 54.785156 10.773438 53.421875 L 10.773438 8.4375 C 10.773438 7.074219 11.863281 5.980469 13.230469 5.980469 Z M 13.230469 5.980469 "/>
</g>
</svg>

<svg height="64pt" viewBox="0 0 64 64" width="64pt" xmlns="http://www.w3.org/2000/svg" xmlns:xlink="http://www.w3.org/1999/xlink"><linearGradient id="a"><stop offset="0" stop-opacity=".275"/><stop offset="1" stop-opacity="0"/></linearGradient><linearGradient id="b" gradientUnits="userSpaceOnUse" x1="33.07554" x2="33.07554" xlink:href="#a" y1="56.067835" y2="58.71392167"/><linearGradient id="c"><stop offset="0" stop-opacity=".314"/><stop offset=".222" stop-opacity=".275"/><stop offset="1" stop-opacity="0"/></linearGradient><radialGradient id="d" cx="450.909" cy="189.579" gradientTransform="matrix(0 -.15626 -.28128 0 98.97 127.19)" gradientUnits="userSpaceOnUse" r="21.167" xlink:href="#c"/><radialGradient id="e" cx="450.909" cy="189.579" gradientTransform="matrix(0 .15626 .28128 0 -36.786 -15.055)" gradientUnits="userSpaceOnUse" r="21.167" xlink:href="#c"/><radialGradient id="f" cx="450.909" cy="189.579" gradientTransform="matrix(0 -.15626 .28128 0 -36.786 127.19)" gradientUnits="userSpaceOnUse" r="21.167" xlink:href="#c"/><radialGradient id="g" cx="450.909" cy="189.579" gradientTransform="matrix(0 .15626 -.28128 0 98.97 -15.055)" gradientUnits="userSpaceOnUse" r="21.167" xlink:href="#c"/><linearGradient id="h" gradientUnits="userSpaceOnUse" x1="31.0952" x2="31.0952" y1="56.07450344" y2="5.79290344"><stop offset="0" stop-color="#b0bec5"/><stop offset="1" stop-color="#cfd8dc"/></linearGradient><linearGradient id="i" gradientTransform="matrix(.05979 0 0 .21877 30.085 -32.722)" gradientUnits="userSpaceOnUse" x1="249.189" x2="249.189" xlink:href="#a" y1="233.5" y2="254.667"/><filter id="j" height="100%" width="100%" x="0%" y="0%"><feColorMatrix in="SourceGraphic" values="0 0 0 0 1 0 0 0 0 1 0 0 0 0 1 0 0 0 1 0"/></filter><mask id="k"><path d="m0 0h64v64h-64z" fill-opacity=".988" filter="url(#j)"/></mask><linearGradient id="l"><stop offset="0" stop-color="#78909c"/><stop offset="1" stop-color="#90a4ae"/></linearGradient><linearGradient id="m" gradientUnits="userSpaceOnUse" x1="960" x2="960" xlink:href="#l" y1="1695.118" y2="175.118"/><clipPath id="n"><path d="m0 0h64v64h-64z"/></clipPath><linearGradient id="o" gradientUnits="userSpaceOnUse" x1="42.33676167" x2="42.33676167" xlink:href="#l" y1="56.067835" y2="5.79293833"/><path d="m15.875 56.066h30.43v2.649h-30.43zm0 0" fill="url(#b)"/><path d="m46.305 56.066h5.293v-2.644h-5.293zm0 0" fill="url(#d)"/><path d="m15.875 56.066h-5.29v2.649h5.29zm0 0" fill="url(#e)"/><path d="m15.875 56.066h-5.29v-2.644h5.29zm0 0" fill="url(#f)"/><path d="m46.305 56.066h5.293v2.649h-5.293zm0 0" fill="url(#g)"/><path d="m37.086 5.793h-23.856a2.639 2.639 0 0 0 -2.644 2.644v44.985a2.639 2.639 0 0 0 2.644 2.644h35.723a2.639 2.639 0 0 0 2.645-2.644v-33.113zm0 0" fill="url(#h)"/><path d="m37.047 18.36h12.566l1.985 1.984v2.648h-14.551zm0 0" fill="url(#i)"/><path d="m10.586 52.395v1.027a2.639 2.639 0 0 0 2.644 2.644h35.723a2.639 2.639 0 0 0 2.645-2.644v-1.027a2.639 2.639 0 0 1 -2.645 2.644h-35.723a2.639 2.639 0 0 1 -2.644-2.644zm0 0" fill-opacity=".235"/><g clip-path="url(#n)" mask="url(#k)"><path d="m620.02 695.13c-11.102 0-20.077 8.858-20.077 19.96v40.035c0 11.101 8.975 19.959 20.077 19.959h639.978c11.101 0 19.959-8.858 19.959-19.96v-40.034c0-11.101-8.858-19.958-19.96-19.958zm.354 160.025c-11.101 0-20.077 8.857-20.077 19.958v40.036c0 11.101 8.976 19.959 20.077 19.959h320.284c11.102 0 19.959-8.858 19.959-19.96v-40.035c0-11.101-8.857-19.958-19.959-19.958zm-.354 159.906c-11.102 0-20.077 8.975-20.077 20.076v40.036c0 10.983 8.975 19.959 20.077 19.959h639.978c11.101 0 19.959-8.976 19.959-19.959v-40.036c0-11.1-8.858-20.076-19.96-20.076zm0 160.024c-11.102 0-20.077 8.975-20.077 20.077v39.917c0 11.101 8.975 20.077 20.077 20.077h320.166c11.101 0 19.959-8.976 19.959-20.077v-39.917c0-11.102-8.858-20.077-19.96-20.077zm0 0" fill="url(#m)" stroke="#212121" stroke-linecap="round" stroke-linejoin="round" stroke-width="11.339" transform="scale(.03308)"/></g><path d="m13.23 5.793a2.639 2.639 0 0 0 -2.644 2.644v.993a2.639 2.639 0 0 1 2.644-2.645h23.856l14.512 14.516v-.992l-14.512-14.516zm0 0" fill="#f6f6f6" fill-opacity=".588"/><path d="m51.598 20.309-14.512-14.516v11.867a2.642 2.642 0 0 0 2.644 2.649zm0 0" fill="url(#o)"/><path d="m37.086 17.04v.62a2.642 2.642 0 0 0 2.644 2.649h11.868l-.621-.625h-11.247a2.639 2.639 0 0 1 -2.644-2.645zm0 0" fill-opacity=".235"/><path d="m37.086 5.793v.992l13.52 13.524h.992zm0 0" fill="#fff" fill-opacity=".392"/><g fill="#212121"><path d="m37.082 5.605a.187.187 0 0 0 -.184.188v11.867a2.832 2.832 0 0 0 2.832 2.836h11.868a.198.198 0 0 0 .175-.117.186.186 0 0 0 -.043-.203l-14.515-14.516a.186.186 0 0 0 -.133-.055zm.191.641 13.872 13.871h-11.415a2.444 2.444 0 0 1 -2.457-2.457zm0 0"/><path d="m13.23 5.605a2.83 2.83 0 0 0 -2.832 2.832v44.985a2.83 2.83 0 0 0 2.832 2.832h35.723a2.83 2.83 0 0 0 2.832-2.832v-33.113c0-.051-.02-.098-.055-.133l-14.515-14.516a.184.184 0 0 0 -.13-.055zm0 .375h23.778l14.402 14.403v33.039a2.449 2.449 0 0 1 -2.457 2.457h-35.723a2.447 2.447 0 0 1 -2.457-2.457v-44.984a2.447 2.447 0 0 1 2.457-2.458zm0 0"/></g></svg>
